public/images/currencies/honeyswap/24.svg

<svg width="24" height="24" viewBox="0 0 24 24" fill="none" xmlns="http://www.w3.org/2000/svg">
<g clip-path="url(#clip0_451:49460)">
<circle cx="12" cy="12" r="12" fill="white"/>
<path d="M17.6379 7.66437L12.8902 4.94569C12.6124 4.78601 12.2974 4.70247 11.977 4.7035C11.6565 4.70453 11.3421 4.79011 11.0653 4.95157L6.33498 7.703C6.05874 7.86422 5.82956 8.09499 5.67026 8.37233C5.51095 8.64968 5.42708 8.96392 5.427 9.28377L5.44555 14.7571C5.44748 15.0776 5.53339 15.392 5.69471 15.6689C5.85603 15.9459 6.08713 16.1757 6.36497 16.3354L11.1114 19.0534C11.3893 19.2133 11.7045 19.2971 12.0252 19.2962C12.3458 19.2952 12.6606 19.2097 12.9376 19.0482L17.6693 16.296C17.9447 16.1335 18.1729 15.902 18.3313 15.6243C18.4898 15.3465 18.5729 15.0322 18.5726 14.7125L18.554 9.23925C18.5517 8.91969 18.4659 8.60629 18.3053 8.33005C18.1446 8.05382 17.9146 7.82435 17.6379 7.66437Z" fill="#FFF19F"/>
<path d="M15.4845 9.32033L12.55 7.64004C12.3784 7.54136 12.1837 7.48973 11.9856 7.49036C11.7876 7.491 11.5933 7.54388 11.4222 7.64367L8.49867 9.3442C8.3279 9.44385 8.18622 9.58652 8.08776 9.75799C7.98929 9.92945 7.93749 10.1237 7.9375 10.3215L7.94896 13.7042C7.95006 13.9024 8.0031 14.0967 8.10278 14.268C8.20246 14.4392 8.34531 14.5813 8.51706 14.6801L11.4506 16.36C11.6224 16.4588 11.8172 16.5106 12.0154 16.51C12.2136 16.5094 12.4081 16.4566 12.5793 16.3568L15.5037 14.6557C15.674 14.5553 15.8151 14.4121 15.9131 14.2404C16.011 14.0687 16.0624 13.8743 16.0621 13.6766L16.0506 10.2939C16.0492 10.0963 15.9963 9.9026 15.897 9.73184C15.7977 9.56108 15.6554 9.41922 15.4845 9.32033Z" fill="#FFDD0F"/>
<path d="M14.1537 10.3438L12.3401 9.30528C12.234 9.24429 12.1137 9.21238 11.9913 9.21277C11.8689 9.21317 11.7488 9.24586 11.6431 9.30754L9.83653 10.3586C9.731 10.4202 9.64345 10.5083 9.58261 10.6143C9.52176 10.7203 9.48975 10.8403 9.48975 10.9625L9.49683 13.0532C9.49758 13.1757 9.53039 13.2958 9.592 13.4015C9.65361 13.5073 9.74188 13.5951 9.84799 13.6562L11.661 14.6943C11.7672 14.7554 11.8876 14.7874 12.0101 14.7871C12.1325 14.7867 12.2528 14.7541 12.3586 14.6924L14.1661 13.6411C14.2713 13.579 14.3584 13.4906 14.419 13.3845C14.4795 13.2784 14.5113 13.1584 14.5112 13.0362L14.5041 10.9455C14.5032 10.8234 14.4703 10.7036 14.4089 10.5981C14.3474 10.4925 14.2595 10.4048 14.1537 10.3438Z" fill="#FFDD0F"/>
<path d="M32.2666 7.61452L27.5188 4.89592C27.241 4.73623 26.926 4.65268 26.6056 4.6537C26.2852 4.65472 25.9707 4.74027 25.6939 4.90173L20.9636 7.65323C20.6873 7.81449 20.4581 8.04534 20.2988 8.32276C20.1395 8.60018 20.0557 8.9145 20.0557 9.2344L20.0742 14.7077C20.0761 15.0282 20.162 15.3426 20.3234 15.6195C20.4847 15.8965 20.7158 16.1263 20.9937 16.2861L25.7402 19.004C26.0181 19.164 26.3333 19.2477 26.6539 19.2468C26.9746 19.2459 27.2893 19.1604 27.5663 18.9989L32.298 16.2466C32.5734 16.0842 32.8016 15.8526 32.96 15.5749C33.1184 15.2972 33.2016 14.9829 33.2013 14.6631L33.1828 9.18988C33.1805 8.87025 33.0948 8.55675 32.9341 8.28043C32.7734 8.00411 32.5433 7.77456 32.2666 7.61452Z" fill="#FFF19F"/>
<path d="M30.1126 9.27052L27.1783 7.5903C27.0066 7.49161 26.8119 7.43998 26.6139 7.44062C26.4159 7.44126 26.2215 7.49414 26.0505 7.59393L23.1268 9.29447C22.9561 9.39414 22.8144 9.53681 22.716 9.70827C22.6175 9.87973 22.5657 10.074 22.5657 10.2717L22.5772 13.6544C22.5783 13.8525 22.6313 14.0469 22.731 14.2182C22.8307 14.3894 22.9736 14.5315 23.1453 14.6303L26.0789 16.3101C26.2506 16.409 26.4454 16.4607 26.6436 16.4602C26.8418 16.4596 27.0363 16.4068 27.2075 16.3069L30.1319 14.6059C30.3021 14.5055 30.4432 14.3624 30.5411 14.1908C30.6391 14.0191 30.6905 13.8249 30.6903 13.6272L30.6788 10.2445C30.6775 10.0469 30.6245 9.85305 30.5252 9.68221C30.4259 9.51138 30.2837 9.36946 30.1126 9.27052Z" fill="#FFEB6F"/>
<path d="M2.78102 7.71472L-1.96684 4.99604C-2.24463 4.83636 -2.55963 4.75282 -2.88004 4.75385C-3.20045 4.75489 -3.51491 4.84046 -3.79166 5.00193L-8.52203 7.75335C-8.79826 7.91458 -9.02743 8.14536 -9.18672 8.4227C-9.34601 8.70005 -9.42986 9.01429 -9.42993 9.33412L-9.41136 14.8074C-9.40945 15.1279 -9.32355 15.4423 -9.16222 15.7193C-9.0009 15.9962 -8.76979 16.226 -8.49195 16.3858L-3.74545 19.1037C-3.46752 19.2637 -3.15231 19.3474 -2.83166 19.3465C-2.51101 19.3456 -2.19629 19.2601 -1.91927 19.0986L2.8124 16.3464C3.0878 16.184 3.31598 15.9524 3.47441 15.6746C3.63284 15.3969 3.71602 15.0826 3.71569 14.7628L3.69714 9.2896C3.69482 8.97004 3.60906 8.65664 3.44838 8.38041C3.28769 8.10418 3.05764 7.87471 2.78102 7.71472Z" fill="#FFF19F"/>
<path d="M0.627517 9.37068L-2.30683 7.69047C-2.4785 7.59175 -2.67318 7.54009 -2.87121 7.54072C-3.06924 7.54134 -3.2636 7.59422 -3.43465 7.69402L-6.35826 9.39455C-6.52902 9.49422 -6.6707 9.63689 -6.76916 9.80836C-6.86762 9.97982 -6.91942 10.1741 -6.91943 10.3718L-6.90791 13.7546C-6.90682 13.9527 -6.85378 14.1471 -6.75409 14.3183C-6.65441 14.4896 -6.51155 14.6317 -6.33979 14.7304L-3.40627 16.4103C-3.2345 16.5092 -3.03969 16.5609 -2.84152 16.5603C-2.64335 16.5598 -2.44883 16.5069 -2.27763 16.4071L0.646793 14.7061C0.817006 14.6057 0.958048 14.4626 1.05598 14.291C1.15391 14.1193 1.20532 13.9251 1.20513 13.7275L1.19369 10.3447C1.19237 10.1471 1.13944 9.95326 1.04013 9.7824C0.940816 9.61155 0.798579 9.46962 0.627517 9.37068Z" fill="#FFEB6F"/>
<path d="M24.9182 -5.36412L20.1704 -8.08296C19.8926 -8.24266 19.5776 -8.32622 19.2572 -8.32519C18.9368 -8.32415 18.6223 -8.23857 18.3456 -8.07707L13.6152 -5.32565C13.339 -5.16443 13.1098 -4.93366 12.9505 -4.65631C12.7912 -4.37897 12.7074 -4.06473 12.7073 -3.74488L12.7259 1.72836C12.7278 2.04887 12.8137 2.36329 12.975 2.64024C13.1364 2.9172 13.3675 3.14702 13.6453 3.30679L18.3918 6.02474C18.6697 6.18468 18.985 6.26842 19.3056 6.26751C19.6263 6.26661 19.941 6.18108 20.218 6.01958L24.9497 3.26735C25.2251 3.10488 25.4532 2.87333 25.6117 2.5956C25.7701 2.31787 25.8533 2.00358 25.853 1.68384L25.8344 -3.7894C25.832 -4.10894 25.7462 -4.42231 25.5855 -4.6985C25.4249 -4.9747 25.1948 -5.20414 24.9182 -5.36412Z" fill="#FFF19F"/>
<path d="M22.7647 -3.70804L19.8303 -5.38833C19.6586 -5.48702 19.464 -5.53866 19.2659 -5.53802C19.0679 -5.53738 18.8736 -5.48449 18.7026 -5.3847L15.7789 -3.68417C15.6082 -3.58452 15.4665 -3.44185 15.368 -3.27039C15.2695 -3.09892 15.2178 -2.90464 15.2178 -2.70691L15.2292 0.675848C15.2303 0.873981 15.2834 1.06836 15.3831 1.2396C15.4827 1.41083 15.6256 1.55293 15.7973 1.65173L18.731 3.33154C18.9027 3.43041 19.0975 3.48219 19.2957 3.48164C19.4939 3.48108 19.6884 3.42822 19.8596 3.32839L22.784 1.62737C22.9542 1.52697 23.0953 1.38386 23.1932 1.21221C23.2911 1.04055 23.3426 0.846295 23.3424 0.648668L23.3309 -2.73401C23.3296 -2.93163 23.2766 -3.12547 23.1773 -3.29632C23.078 -3.46717 22.9358 -3.6091 22.7647 -3.70804Z" fill="#FFEB6F"/>
<path d="M7.92488 -3.70804L4.99046 -5.38833C4.81879 -5.48702 4.62411 -5.53866 4.42609 -5.53802C4.22808 -5.53738 4.03375 -5.48449 3.86272 -5.3847L0.939103 -3.68417C0.76832 -3.58452 0.626629 -3.44185 0.528167 -3.27039C0.429704 -3.09892 0.377909 -2.90464 0.37793 -2.70691L0.38937 0.675848C0.39048 0.873981 0.443526 1.06836 0.54321 1.2396C0.642894 1.41083 0.785746 1.55293 0.957493 1.65173L3.89111 3.33154C4.06286 3.43041 4.25767 3.48219 4.45585 3.48164C4.65402 3.48108 4.84854 3.42822 5.01974 3.32839L7.94416 1.62737C8.11438 1.52697 8.25543 1.38386 8.35336 1.21221C8.45129 1.04055 8.50271 0.846295 8.50251 0.648668L8.49105 -2.73401C8.48975 -2.93163 8.4368 -3.12547 8.33749 -3.29632C8.23818 -3.46717 8.09595 -3.6091 7.92488 -3.70804Z" fill="#FFDD0F"/>
<path d="M10.0332 -5.31376L5.28534 -8.03236C5.00757 -8.19206 4.69258 -8.27562 4.37218 -8.27459C4.05178 -8.27355 3.73732 -8.18797 3.4606 -8.02647L-1.26976 -5.27505C-1.546 -5.11383 -1.77518 -4.88306 -1.93448 -4.60571C-2.09379 -4.32837 -2.17766 -4.01413 -2.17773 -3.69428L-2.15919 1.77896C-2.15728 2.09947 -2.07137 2.41389 -1.91004 2.69084C-1.74872 2.9678 -1.5176 3.19762 -1.23975 3.35739L3.50673 6.07534C3.78466 6.23527 4.09987 6.31901 4.42052 6.3181C4.74117 6.3172 5.05591 6.23168 5.33293 6.07018L10.0646 3.31795C10.34 3.1555 10.5682 2.92395 10.7266 2.64622C10.8851 2.36848 10.9682 2.05419 10.9679 1.73444L10.9493 -3.7388C10.947 -4.05838 10.8613 -4.3718 10.7006 -4.64805C10.5399 -4.9243 10.3099 -5.15378 10.0332 -5.31376Z" fill="#FFF19F"/>
<path d="M24.9182 20.6928L20.1704 17.9742C19.8926 17.8145 19.5776 17.731 19.2572 17.732C18.9368 17.733 18.6223 17.8186 18.3456 17.9801L13.6152 20.7315C13.3389 20.8928 13.1097 21.1236 12.9504 21.4011C12.7911 21.6785 12.7073 21.9928 12.7073 22.3127L12.7259 27.786C12.7278 28.1065 12.8137 28.4209 12.975 28.6978C13.1364 28.9748 13.3675 29.2046 13.6453 29.3644L18.3918 32.0823C18.6697 32.2423 18.985 32.326 19.3056 32.3251C19.6263 32.3242 19.941 32.2387 20.218 32.0772L24.9497 29.3249C25.2251 29.1625 25.4533 28.9309 25.6117 28.6532C25.7701 28.3755 25.8533 28.0612 25.853 27.7414L25.8344 22.2682C25.8321 21.9485 25.7464 21.635 25.5857 21.3587C25.425 21.0824 25.1949 20.8529 24.9182 20.6928Z" fill="#FFF19F"/>
<path d="M22.7647 22.3152L19.8303 20.6354C19.6586 20.5367 19.464 20.485 19.2659 20.4857C19.0679 20.4863 18.8736 20.5392 18.7026 20.639L15.7789 22.3395C15.6082 22.4392 15.4665 22.5818 15.368 22.7533C15.2695 22.9248 15.2178 23.119 15.2178 23.3168L15.2292 26.6995C15.2304 26.8976 15.2835 27.0919 15.3832 27.263C15.4828 27.4342 15.6256 27.5762 15.7973 27.675L18.731 29.3548C18.9027 29.4537 19.0975 29.5055 19.2957 29.5049C19.4939 29.5044 19.6884 29.4515 19.8596 29.3517L22.784 27.6506C22.9542 27.5502 23.0953 27.4071 23.1932 27.2355C23.2911 27.0638 23.3426 26.8696 23.3424 26.6719L23.3309 23.2893C23.3296 23.0917 23.2766 22.8978 23.1773 22.727C23.078 22.5561 22.9358 22.4142 22.7647 22.3152Z" fill="#FFEB6F"/>
<path d="M7.90755 22.349L4.97322 20.6691C4.80153 20.5704 4.60685 20.5188 4.40882 20.5194C4.21079 20.5201 4.01643 20.5729 3.84538 20.6727L0.921769 22.3733C0.751014 22.4729 0.60935 22.6156 0.510892 22.7871C0.412433 22.9585 0.360615 23.1528 0.360596 23.3505L0.372134 26.7333C0.373291 26.9313 0.426351 27.1256 0.526033 27.2968C0.625716 27.468 0.768533 27.61 0.940238 27.7087L3.87378 29.3885C4.04553 29.4874 4.24034 29.5392 4.43851 29.5386C4.63669 29.5381 4.83121 29.4852 5.0024 29.3854L7.92682 27.6844C8.09705 27.584 8.23811 27.4409 8.33605 27.2692C8.43399 27.0976 8.48543 26.9033 8.48526 26.7057L8.47398 23.3225C8.47256 23.125 8.41955 22.9312 8.3202 22.7604C8.22085 22.5897 8.07859 22.4478 7.90755 22.349Z" fill="#FFDD0F"/>
<path d="M10.0613 20.7431L5.31341 18.0245C5.03565 17.8648 4.72066 17.7813 4.40026 17.7823C4.07985 17.7833 3.7654 17.8689 3.48867 18.0304L-1.24168 20.7818C-1.51798 20.9431 -1.74719 21.1739 -1.9065 21.4513C-2.06581 21.7288 -2.14965 22.0431 -2.14966 22.363L-2.13111 27.8362C-2.1292 28.1568 -2.04329 28.4712 -1.88197 28.7481C-1.72064 29.0251 -1.48953 29.2549 -1.21167 29.4147L3.53481 32.1326C3.81273 32.2926 4.12794 32.3763 4.4486 32.3754C4.76925 32.3745 5.08399 32.289 5.361 32.1275L10.0927 29.3752C10.3681 29.2128 10.5963 28.9812 10.7547 28.7035C10.9132 28.4258 10.9963 28.1115 10.9959 27.7917L10.9774 22.3185C10.9752 21.9988 10.8895 21.6853 10.7288 21.409C10.5681 21.1327 10.338 20.9031 10.0613 20.7431Z" fill="#FFF19F"/>
<path d="M7.86946 -3.70804L4.93504 -5.38833C4.76337 -5.48702 4.56869 -5.53866 4.37067 -5.53802C4.17266 -5.53738 3.97833 -5.48449 3.8073 -5.3847L0.883683 -3.68417C0.7129 -3.58452 0.571209 -3.44185 0.472747 -3.27039C0.374284 -3.09892 0.322489 -2.90464 0.32251 -2.70691L0.33395 0.675848C0.33506 0.873981 0.388106 1.06836 0.48779 1.2396C0.587474 1.41083 0.730326 1.55293 0.902074 1.65173L3.83569 3.33154C4.00744 3.43041 4.20225 3.48219 4.40043 3.48164C4.5986 3.48108 4.79312 3.42822 4.96432 3.32839L7.88874 1.62737C8.05896 1.52697 8.20001 1.38386 8.29794 1.21221C8.39587 1.04055 8.4473 0.846295 8.44709 0.648668L8.43564 -2.73401C8.43433 -2.93163 8.38138 -3.12547 8.28207 -3.29632C8.18276 -3.46717 8.04053 -3.6091 7.86946 -3.70804Z" fill="#FFEB6F"/>
<path d="M7.86946 22.2816L4.93504 20.6013C4.76337 20.5026 4.56869 20.451 4.37067 20.4516C4.17266 20.4522 3.97833 20.5051 3.8073 20.6049L0.883683 22.3055C0.7129 22.4051 0.571209 22.5478 0.472747 22.7192C0.374284 22.8907 0.322489 23.085 0.32251 23.2827L0.33395 26.6655C0.33506 26.8636 0.388106 27.058 0.48779 27.2292C0.587474 27.4005 0.730326 27.5426 0.902074 27.6414L3.83569 29.3212C4.00744 29.42 4.20225 29.4718 4.40043 29.4713C4.5986 29.4707 4.79312 29.4178 4.96432 29.318L7.88874 27.617C8.05896 27.5166 8.20001 27.3735 8.29794 27.2018C8.39587 27.0302 8.4473 26.8359 8.44709 26.6383L8.43564 23.2556C8.43433 23.058 8.38138 22.8642 8.28207 22.6933C8.18276 22.5225 8.04053 22.3805 7.86946 22.2816Z" fill="#FFEB6F"/>
</g>
<defs>
<clipPath id="clip0_451:49460">
<path d="M0 12C0 5.37258 5.37258 0 12 0C18.6274 0 24 5.37258 24 12C24 18.6274 18.6274 24 12 24C5.37258 24 0 18.6274 0 12Z" fill="white"/>
</clipPath>
</defs>
</svg>

<svg width="24" height="24" fill="none" xmlns="http://www.w3.org/2000/svg"><g clip-path="url(#a)"><circle cx="12" cy="12" r="12" fill="#fff"/><path d="M17.638 7.664 12.89 4.946a1.82 1.82 0 0 0-1.825.006l-4.73 2.751a1.83 1.83 0 0 0-.908 1.58l.019 5.474a1.833 1.833 0 0 0 .919 1.578l4.746 2.718a1.822 1.822 0 0 0 1.827-.005l4.731-2.752a1.836 1.836 0 0 0 .904-1.583l-.019-5.474a1.835 1.835 0 0 0-.916-1.575Z" fill="#FFF19F"/><path d="M15.485 9.32 12.55 7.64a1.125 1.125 0 0 0-1.128.004L8.5 9.344a1.131 1.131 0 0 0-.562.978l.012 3.382a1.133 1.133 0 0 0 .568.976l2.934 1.68a1.126 1.126 0 0 0 1.128-.003l2.925-1.701a1.135 1.135 0 0 0 .558-.98l-.011-3.382a1.134 1.134 0 0 0-.566-.974Z" fill="#FFDD0F"/><path d="M14.154 10.344 12.34 9.305a.695.695 0 0 0-.697.003l-1.806 1.05a.699.699 0 0 0-.347.604l.007 2.091a.7.7 0 0 0 .351.603l1.813 1.038a.697.697 0 0 0 .698-.002l1.807-1.05a.702.702 0 0 0 .345-.606l-.007-2.09a.701.701 0 0 0-.35-.602Z" fill="#FFDD0F"/><path d="m32.267 7.615-4.748-2.72a1.82 1.82 0 0 0-1.825.007l-4.73 2.751a1.83 1.83 0 0 0-.908 1.581l.018 5.474a1.832 1.832 0 0 0 .92 1.578l4.746 2.718a1.82 1.82 0 0 0 1.826-.005l4.732-2.752a1.836 1.836 0 0 0 .903-1.584l-.018-5.473a1.835 1.835 0 0 0-.916-1.575Z" fill="#FFF19F"/><path d="m30.113 9.27-2.935-1.68a1.125 1.125 0 0 0-1.128.004l-2.923 1.7a1.131 1.131 0 0 0-.561.978l.011 3.382a1.133 1.133 0 0 0 .568.976l2.934 1.68a1.126 1.126 0 0 0 1.128-.003l2.925-1.701a1.135 1.135 0 0 0 .558-.979l-.011-3.383a1.134 1.134 0 0 0-.566-.973Z" fill="#FFEB6F"/><path d="m2.781 7.715-4.748-2.719a1.82 1.82 0 0 0-1.825.006l-4.73 2.751a1.83 1.83 0 0 0-.908 1.581l.019 5.473a1.834 1.834 0 0 0 .92 1.579l4.746 2.718a1.821 1.821 0 0 0 1.826-.005l4.731-2.753a1.835 1.835 0 0 0 .904-1.583L3.697 9.29a1.835 1.835 0 0 0-.916-1.575Z" fill="#FFF19F"/><path d="m.628 9.37-2.935-1.68a1.125 1.125 0 0 0-1.128.004l-2.923 1.7a1.132 1.132 0 0 0-.561.978l.011 3.383a1.133 1.133 0 0 0 .568.975l2.934 1.68a1.125 1.125 0 0 0 1.128-.003l2.925-1.7a1.135 1.135 0 0 0 .558-.98l-.011-3.382a1.134 1.134 0 0 0-.566-.974Z" fill="#FFEB6F"/><path d="M24.918-5.364 20.17-8.083a1.82 1.82 0 0 0-1.824.006l-4.73 2.751a1.831 1.831 0 0 0-.909 1.581l.019 5.473a1.834 1.834 0 0 0 .92 1.579l4.746 2.718a1.822 1.822 0 0 0 1.826-.005l4.732-2.753a1.837 1.837 0 0 0 .903-1.583l-.019-5.473a1.835 1.835 0 0 0-.916-1.575Z" fill="#FFF19F"/><path d="m22.765-3.708-2.935-1.68a1.125 1.125 0 0 0-1.127.003l-2.924 1.7a1.132 1.132 0 0 0-.561.978l.011 3.383a1.133 1.133 0 0 0 .568.976l2.934 1.68a1.125 1.125 0 0 0 1.129-.004l2.924-1.7a1.135 1.135 0 0 0 .558-.98l-.011-3.382a1.134 1.134 0 0 0-.566-.974Z" fill="#FFEB6F"/><path d="M7.925-3.708 4.99-5.388a1.125 1.125 0 0 0-1.127.003l-2.924 1.7a1.131 1.131 0 0 0-.561.978L.389.676a1.133 1.133 0 0 0 .568.976l2.934 1.68a1.126 1.126 0 0 0 1.129-.004l2.924-1.7a1.135 1.135 0 0 0 .559-.98L8.49-2.733a1.134 1.134 0 0 0-.566-.974Z" fill="#FFDD0F"/><path d="M10.033-5.314 5.285-8.032a1.82 1.82 0 0 0-1.824.006l-4.73 2.75a1.83 1.83 0 0 0-.909 1.582l.019 5.473a1.833 1.833 0 0 0 .92 1.578l4.746 2.718a1.822 1.822 0 0 0 1.826-.005l4.732-2.752a1.836 1.836 0 0 0 .903-1.584l-.019-5.473a1.834 1.834 0 0 0-.916-1.575ZM24.918 20.693l-4.748-2.719a1.82 1.82 0 0 0-1.824.006l-4.73 2.752a1.83 1.83 0 0 0-.909 1.58l.019 5.474a1.833 1.833 0 0 0 .92 1.578l4.746 2.718a1.821 1.821 0 0 0 1.826-.005l4.732-2.752a1.836 1.836 0 0 0 .903-1.584l-.019-5.473a1.835 1.835 0 0 0-.916-1.575Z" fill="#FFF19F"/><path d="m22.765 22.315-2.935-1.68a1.124 1.124 0 0 0-1.127.004l-2.924 1.7a1.132 1.132 0 0 0-.561.978l.011 3.383a1.133 1.133 0 0 0 .568.975l2.934 1.68a1.125 1.125 0 0 0 1.129-.003l2.924-1.701a1.135 1.135 0 0 0 .558-.98l-.011-3.382a1.134 1.134 0 0 0-.566-.974Z" fill="#FFEB6F"/><path d="m7.908 22.349-2.935-1.68a1.126 1.126 0 0 0-1.128.004l-2.923 1.7a1.13 1.13 0 0 0-.561.977l.011 3.383a1.133 1.133 0 0 0 .568.976l2.934 1.68a1.125 1.125 0 0 0 1.128-.004l2.925-1.7a1.135 1.135 0 0 0 .558-.98l-.011-3.382a1.134 1.134 0 0 0-.566-.974Z" fill="#FFDD0F"/><path d="m10.061 20.743-4.748-2.718a1.82 1.82 0 0 0-1.824.005l-4.73 2.752a1.831 1.831 0 0 0-.909 1.581l.019 5.473a1.833 1.833 0 0 0 .92 1.579l4.746 2.718a1.821 1.821 0 0 0 1.826-.006l4.732-2.752a1.836 1.836 0 0 0 .903-1.583l-.019-5.474a1.834 1.834 0 0 0-.916-1.575Z" fill="#FFF19F"/><path d="m7.87-3.708-2.935-1.68a1.125 1.125 0 0 0-1.128.003l-2.923 1.7a1.131 1.131 0 0 0-.561.978L.334.676a1.133 1.133 0 0 0 .568.976l2.934 1.68a1.126 1.126 0 0 0 1.128-.004l2.925-1.7a1.135 1.135 0 0 0 .558-.98l-.011-3.382a1.134 1.134 0 0 0-.567-.974ZM7.87 22.282l-2.935-1.68a1.125 1.125 0 0 0-1.128.003l-2.923 1.7a1.131 1.131 0 0 0-.561.978l.011 3.383a1.133 1.133 0 0 0 .568.975l2.934 1.68a1.127 1.127 0 0 0 1.128-.003l2.925-1.701a1.135 1.135 0 0 0 .558-.979l-.011-3.382a1.134 1.134 0 0 0-.567-.974Z" fill="#FFEB6F"/></g><defs><clipPath id="a"><path d="M0 12C0 5.373 5.373 0 12 0s12 5.373 12 12-5.373 12-12 12S0 18.627 0 12Z" fill="#fff"/></clipPath></defs></svg>
